lib/logo_tmp/nrk-logo-nrk-p3-urort-title-below-on-light.svg

<svg width="89" height="35" viewBox="0 0 89 35" fill="none" xmlns="http://www.w3.org/2000/svg">
<rect x="3.33337" y="3.33337" width="28" height="28" fill="white"/>
<path fill-rule="evenodd" clip-rule="evenodd" d="M0 0H34.6667V34.6667H0V0ZM11.1956 15.4071H8.00004V27.0174H11.1956V15.4071ZM15.2473 15.4071H11.6588C11.6588 15.4071 13.6976 18.7495 13.7206 18.7915C13.8768 19.0566 13.8864 19.2192 13.7338 19.4749L11.6588 22.872H15.2473C15.2473 22.872 16.9776 20.0461 17.2143 19.6538C17.4491 19.2614 17.4385 19.0174 17.2048 18.6146C16.966 18.2083 16.9506 18.1832 15.5464 15.8945L15.546 15.8939L15.2473 15.4071ZM25.2971 15.4071C25.2971 15.4071 26.365 17.1253 26.4857 17.3306C26.7201 17.7348 26.7307 17.9793 26.495 18.3731C26.3305 18.646 24.9187 20.9823 24.9187 20.9823C25.1775 21.4047 25.5223 21.9572 25.825 22.4422L25.8253 22.4427C26.136 22.9405 26.4023 23.3672 26.4856 23.5089C26.72 23.913 26.7306 24.1576 26.495 24.5513C26.4501 24.6258 26.3587 24.7792 26.2389 24.9804L26.2383 24.9814C25.9191 25.5173 25.3983 26.3916 25.0152 27.0174H21.7364L23.5317 24.0708L21.6696 20.9498L23.3394 18.2173H19.2944L17.6167 15.4071H25.2971ZM19.0974 21.3691C18.5921 22.1936 17.7466 23.5751 17.5884 23.8446C17.3626 24.2338 17.3524 24.4694 17.5793 24.8485C17.7377 25.1114 18.5898 26.5039 19.0975 27.3333C19.6053 26.5038 20.4573 25.1113 20.6157 24.8485C20.8426 24.4692 20.8323 24.2338 20.6066 23.8446C20.4481 23.5751 19.6027 22.1936 19.0974 21.3691ZM8.00004 7.15612V13.6874H10.1436V7.15612H8.00004ZM14.2928 13.6874L13.06 8.19562C13.0007 7.9049 12.8432 7.64345 12.6139 7.45512C12.385 7.25854 12.0923 7.15221 11.7906 7.15612H10.4748L11.9468 13.6874H14.2928ZM14.6148 7.15612V13.6874H16.7584V7.15612H14.6148ZM17.7198 9.46508C17.9191 9.58169 18.1463 9.64211 18.3772 9.63989C18.3772 9.63989 18.3772 9.63988 18.3771 9.63988H18.3774C18.3773 9.63988 18.3773 9.63989 18.3772 9.63989C18.6069 9.64258 18.8329 9.5821 19.0306 9.46508C19.2253 9.3504 19.387 9.18716 19.4998 8.99132C19.6165 8.7919 19.6769 8.56464 19.6747 8.33362C19.6772 8.10401 19.6168 7.87811 19.4998 7.68049C19.3858 7.48678 19.2243 7.32531 19.0306 7.21133C18.8329 7.09453 18.607 7.03406 18.3774 7.03653C18.1464 7.03443 17.9192 7.09484 17.7198 7.21133C17.5241 7.32432 17.3608 7.48593 17.2459 7.68049C17.1289 7.87806 17.0684 8.104 17.071 8.33362C17.0687 8.56466 17.1292 8.79195 17.2459 8.99132C17.3596 9.18802 17.523 9.3514 17.7198 9.46508ZM20.0059 7.15612V13.6874H22.1497V7.15612H20.0059ZM25.0015 10.9507C24.9155 10.8068 24.8695 10.7317 24.8635 10.7253H24.8632C24.7974 10.6372 24.759 10.5316 24.7529 10.4218C24.7568 10.3172 24.7886 10.2155 24.8449 10.1273L26.6667 7.15597H24.3115C24.1644 7.39535 24.0309 7.61306 23.9111 7.8091C23.792 8.00535 23.6648 8.21541 23.5297 8.43925C23.3945 8.6631 23.261 8.88234 23.1292 9.09699C22.9973 9.31163 22.8823 9.49713 22.7842 9.65351C22.686 9.80989 22.6186 9.91877 22.5818 9.98009C22.4946 10.1117 22.4438 10.2641 22.4347 10.4218C22.4461 10.586 22.5 10.7445 22.591 10.8817C22.6277 10.937 22.6937 11.0444 22.7889 11.2037C22.8838 11.363 22.9972 11.5484 23.1292 11.7602C23.2611 11.972 23.3946 12.1897 23.5297 12.4134C23.6644 12.6372 23.7915 12.8457 23.9111 13.0389C24.0307 13.2321 24.1642 13.4483 24.3115 13.6874H26.6667C26.4947 13.4054 26.3413 13.1525 26.2067 12.9285C26.0716 12.7046 25.9274 12.4669 25.7742 12.2156C25.6209 11.9642 25.4753 11.7266 25.3373 11.5027C25.1994 11.2786 25.0875 11.0946 25.0015 10.9507Z" fill="black"/>
<path d="M52.0532 18.7963C52.0617 19.3845 51.9921 19.9712 51.8462 20.541C51.7299 21.0043 51.5109 21.4355 51.2055 21.8028C50.8994 22.1493 50.5089 22.4108 50.0719 22.5618C49.5293 22.7447 48.9588 22.8314 48.3864 22.818C47.7193 22.8332 47.0558 22.7159 46.4343 22.473C45.8883 22.2486 45.4407 21.8359 45.1726 21.3099C44.8524 20.616 44.7037 19.8554 44.7389 19.092V10.3392H42.6689V19.4285C42.6467 20.2462 42.798 21.0593 43.1128 21.8143C43.3815 22.4369 43.8017 22.9825 44.3351 23.4013C44.8719 23.8109 45.4852 24.1092 46.1389 24.2785C46.8465 24.4654 47.5757 24.5581 48.3075 24.5542C49.4069 24.5971 50.4991 24.3597 51.4815 23.8642C52.2841 23.4305 52.9292 22.7543 53.3248 21.9322C53.7438 21.0178 53.9493 20.0201 53.9257 19.0145V10.3402H52.0529L52.0532 18.7963Z" fill="black"/>
<path d="M60.9838 14.2131C60.615 14.3117 60.2629 14.4645 59.9389 14.6665C59.6025 14.8763 59.2916 15.1244 59.0123 15.4058C58.9657 15.4521 58.9204 15.5044 58.8743 15.553V14.0846L56.8635 14.3803V24.336H58.8743V16.8883C59.0238 16.7838 59.1784 16.687 59.3376 16.5982C59.5349 16.4897 59.7391 16.3942 59.9488 16.3123C60.1523 16.2335 60.3593 16.1645 60.5698 16.1053C60.7862 16.0451 61.007 16.0023 61.2302 15.9772C61.4691 15.951 61.7098 15.9444 61.9498 15.9575L62.1863 14.1047C61.7823 14.0755 61.3761 14.1121 60.9838 14.2131Z" fill="black"/>
<path d="M72.4772 13.8283L71.3732 14.9934C71.2281 14.8853 71.0767 14.7859 70.9198 14.6958C70.0957 14.257 69.1719 14.0398 68.2386 14.0652C67.3003 14.0439 66.3727 14.2681 65.5476 14.7155C64.7861 15.1418 64.1633 15.7782 63.7536 16.5489C63.3084 17.4136 63.088 18.3764 63.1129 19.3487C63.0877 20.3142 63.2974 21.2714 63.7241 22.1379C63.8371 22.3525 63.9671 22.5577 64.1128 22.7517L63.0143 23.9224L63.9212 24.75L64.9726 23.6138C65.1242 23.7271 65.2832 23.8302 65.4484 23.9224C66.2531 24.3447 67.1521 24.5549 68.0606 24.5332C69.005 24.553 69.9387 24.329 70.7713 23.8826C71.5493 23.4528 72.1888 22.8101 72.6145 22.0298C73.0786 21.1569 73.3094 20.1789 73.2848 19.1906C73.3075 18.2494 73.094 17.3174 72.6638 16.4799C72.5469 16.2654 72.413 16.0605 72.2636 15.8671L73.4031 14.6563L72.4772 13.8283ZM65.5969 17.2392C65.818 16.7455 66.1864 16.3323 66.6516 16.0564C67.1425 15.784 67.6972 15.6479 68.2584 15.6621C68.7046 15.6519 69.1479 15.7358 69.5595 15.9085C69.7812 16.0082 69.9857 16.1421 70.1657 16.3054L65.5792 21.259C65.3236 20.6141 65.2022 19.9238 65.2224 19.2304C65.199 18.5472 65.3269 17.8672 65.5969 17.2392ZM70.8015 21.3C70.576 21.8098 70.2014 22.2394 69.7271 22.5322C69.2514 22.8076 68.7093 22.9475 68.1598 22.9367C67.615 22.9494 67.0779 22.8057 66.6122 22.5227C66.481 22.4382 66.3583 22.3413 66.2459 22.2332L70.8347 17.2787C70.903 17.4357 70.9611 17.5971 71.0085 17.7617C71.1383 18.2401 71.2014 18.7343 71.1958 19.23C71.2192 19.9411 71.0845 20.6486 70.8015 21.3014V21.3Z" fill="black"/>
<path d="M79.9289 14.2131C79.5601 14.3118 79.208 14.4646 78.884 14.6665C78.5477 14.8764 78.2368 15.1245 77.9574 15.4058C77.9108 15.4521 77.8654 15.5044 77.8194 15.553V14.0846L75.8086 14.3803V24.336H77.8194V16.8883C77.9689 16.7838 78.1235 16.687 78.2827 16.5982C78.48 16.4897 78.6842 16.3942 78.8939 16.3123C79.0976 16.2335 79.3046 16.1645 79.5149 16.1053C79.7313 16.0452 79.9521 16.0023 80.1753 15.9772C80.4142 15.951 80.6549 15.9444 80.8949 15.9575L81.1314 14.1047C80.7274 14.0755 80.3212 14.1121 79.9289 14.2131Z" fill="black"/>
<path d="M88.4852 22.6902C88.3929 22.7096 88.291 22.7297 88.1793 22.749L87.8445 22.8082C87.7368 22.8274 87.6281 22.8405 87.5189 22.8476C87.4137 22.8545 87.3148 22.8575 87.2232 22.8575C86.921 22.8659 86.621 22.8052 86.3459 22.68C86.1092 22.568 85.913 22.3855 85.784 22.1576C85.6459 21.9006 85.5779 21.6117 85.5869 21.3201V15.8589H88.3666L88.5838 14.2818H85.5869V11.1666L83.576 11.8763V14.2818H82.058L81.8412 15.8589H83.576V21.7338C83.5672 22.1256 83.6272 22.516 83.7534 22.887C83.855 23.1806 84.0124 23.4518 84.2171 23.6855C84.4046 23.8937 84.6327 24.0615 84.8873 24.1783C85.148 24.2981 85.4228 24.3842 85.7052 24.4346C85.9848 24.4861 86.2685 24.5125 86.5529 24.5135C86.7632 24.5135 86.9698 24.5069 87.1742 24.4941C87.3786 24.4813 87.5649 24.4612 87.7361 24.4346C87.9072 24.408 88.0676 24.3784 88.2187 24.3462C88.3699 24.314 88.498 24.2838 88.6032 24.2572L88.7218 22.6212C88.6449 22.6505 88.5658 22.6736 88.4852 22.6902Z" fill="black"/>
</svg>

<svg xmlns="http://www.w3.org/2000/svg" viewBox="0 0 89 35"><path fill="#fff" d="M3.333 3.333h28v28h-28z"/><path fill="#000" fill-rule="evenodd" d="M0 0h34.667v34.667H0V0Zm11.196 15.407H8v11.61h3.196v-11.61Zm4.051 0H11.66s2.039 3.343 2.062 3.384c.156.266.165.428.013.684l-2.075 3.397h3.588s1.73-2.826 1.967-3.218c.235-.393.225-.637-.01-1.04-.238-.406-.253-.43-1.658-2.72l-.299-.487Zm10.05 0s1.068 1.718 1.189 1.924c.234.404.245.648.009 1.042l-1.576 2.61c.258.422.603.974.906 1.46.311.497.577.924.66 1.066.235.404.246.649.01 1.042l-.256.43c-.32.536-.84 1.41-1.224 2.036h-3.279l1.796-2.946-1.862-3.121 1.67-2.733h-4.046l-1.677-2.81h7.68Zm-6.2 5.962c-.505.825-1.35 2.206-1.509 2.476-.225.389-.236.624-.009 1.004.159.262 1.01 1.655 1.518 2.484.508-.83 1.36-2.222 1.519-2.484.227-.38.216-.615-.01-1.004-.158-.27-1.003-1.651-1.509-2.476ZM8 7.156v6.531h2.144v-6.53H8Zm6.293 6.531L13.06 8.196a1.292 1.292 0 0 0-.446-.74 1.239 1.239 0 0 0-.823-.3h-1.316l1.472 6.531h2.346Zm.322-6.53v6.53h2.143v-6.53h-2.143Zm3.105 2.308c.2.117.426.177.657.175.23.003.456-.058.654-.175a1.307 1.307 0 0 0 .644-1.131 1.255 1.255 0 0 0-.175-.654 1.323 1.323 0 0 0-.47-.469 1.258 1.258 0 0 0-.653-.174 1.313 1.313 0 0 0-1.132.644 1.254 1.254 0 0 0-.174.653 1.296 1.296 0 0 0 .649 1.131Zm2.286-2.309v6.531h2.144v-6.53h-2.144ZM25 10.951a5.197 5.197 0 0 0-.138-.226.56.56 0 0 1-.11-.303.588.588 0 0 1 .092-.295l1.822-2.971H24.31a313.335 313.335 0 0 0-.781 1.283 105.098 105.098 0 0 1-.948 1.541.893.893 0 0 0-.147.442.951.951 0 0 0 .156.46c.037.055.103.162.198.322.095.159.208.344.34.556.132.212.266.43.4.653.135.224.262.433.382.626l.4.648h2.356a136.34 136.34 0 0 1-.46-.758 183.366 183.366 0 0 0-.87-1.426c-.138-.224-.25-.408-.335-.552Z" clip-rule="evenodd"/><path fill="#000" d="M52.053 18.796a6.646 6.646 0 0 1-.207 1.745 3.187 3.187 0 0 1-.64 1.262 2.68 2.68 0 0 1-1.134.759 4.917 4.917 0 0 1-1.686.256 5.047 5.047 0 0 1-1.952-.345 2.47 2.47 0 0 1-1.261-1.163 4.769 4.769 0 0 1-.434-2.218v-8.753h-2.07v9.09c-.022.817.129 1.63.444 2.385a4.066 4.066 0 0 0 1.222 1.587c.537.41 1.15.708 1.804.878.707.186 1.437.28 2.168.275a6.486 6.486 0 0 0 3.174-.69 4.33 4.33 0 0 0 1.844-1.932 6.63 6.63 0 0 0 .6-2.917V10.34h-1.872v8.456ZM60.984 14.213c-.369.099-.721.252-1.045.454-.337.21-.647.457-.927.739-.046.046-.092.098-.138.147v-1.468l-2.01.295v9.956h2.01v-7.448a5.177 5.177 0 0 1 1.075-.576c.203-.078.41-.147.62-.207a4.226 4.226 0 0 1 1.38-.148l.237-1.852c-.404-.03-.81.007-1.202.108ZM72.477 13.828l-1.104 1.165a4.56 4.56 0 0 0-.453-.297 5.392 5.392 0 0 0-2.681-.63 5.389 5.389 0 0 0-2.691.65 4.547 4.547 0 0 0-1.794 1.833 5.792 5.792 0 0 0-.641 2.8 5.961 5.961 0 0 0 .611 2.789c.113.214.243.42.389.614l-1.099 1.17.907.828 1.052-1.136c.151.113.31.216.475.308a5.347 5.347 0 0 0 2.613.611 5.493 5.493 0 0 0 2.71-.65 4.675 4.675 0 0 0 1.844-1.853c.464-.873.694-1.851.67-2.84a5.635 5.635 0 0 0-.621-2.71 4.615 4.615 0 0 0-.4-.613l1.14-1.21-.927-.829Zm-6.88 3.411a2.62 2.62 0 0 1 1.055-1.183 3.147 3.147 0 0 1 1.606-.394c.447-.01.89.074 1.302.246.221.1.426.234.606.397l-4.587 4.954a5.103 5.103 0 0 1-.357-2.029 4.64 4.64 0 0 1 .375-1.99Zm5.205 4.061c-.226.51-.6.94-1.075 1.232a3.01 3.01 0 0 1-1.567.405 2.852 2.852 0 0 1-1.548-.414 2.414 2.414 0 0 1-.366-.29l4.589-4.954c.068.157.126.318.174.483.13.478.192.972.187 1.468a4.81 4.81 0 0 1-.394 2.071V21.3ZM79.929 14.213c-.369.099-.721.252-1.045.454-.336.21-.647.457-.927.739-.046.046-.092.098-.138.147v-1.468l-2.01.295v9.956h2.01v-7.448a5.177 5.177 0 0 1 1.075-.576 6.91 6.91 0 0 1 .62-.207 4.237 4.237 0 0 1 1.38-.148l.237-1.852c-.404-.03-.81.007-1.202.108ZM88.485 22.69c-.092.02-.194.04-.306.059l-.335.06c-.107.018-.216.031-.325.039-.105.007-.204.01-.296.01a1.985 1.985 0 0 1-.877-.178 1.27 1.27 0 0 1-.562-.522 1.661 1.661 0 0 1-.197-.838V15.86h2.78l.217-1.577h-2.997v-3.115l-2.011.71v2.405h-1.518l-.217 1.577h1.735v5.875c-.009.392.051.782.177 1.153.102.294.26.565.464.799.188.208.416.375.67.492.261.12.536.206.818.257.28.051.564.078.848.079.21 0 .417-.007.621-.02.205-.013.39-.033.562-.06a8.8 8.8 0 0 0 .867-.177l.119-1.636c-.077.03-.156.053-.237.07Z"/></svg>
